SVG_Azure_All/Application Service.svg

<?xml version="1.0" encoding="UTF-8" standalone="no"?>
<!-- Generated by Microsoft Visio, SVG Export Application Service.svg Page-1 -->

<svg
   xmlns:dc="http://purl.org/dc/elements/1.1/"
   xmlns:cc="http://creativecommons.org/ns#"
   xmlns:rdf="http://www.w3.org/1999/02/22-rdf-syntax-ns#"
   xmlns:svg="http://www.w3.org/2000/svg"
   xmlns="http://www.w3.org/2000/svg"
   xmlns:sodipodi="http://sodipodi.sourceforge.net/DTD/sodipodi-0.dtd"
   xmlns:inkscape="http://www.inkscape.org/namespaces/inkscape"
   width="0.7874043in"
   height="0.7874043in"
   viewBox="0 0 56.693003 56.693003"
   xml:space="preserve"
   class="st4"
   version="1.1"
   id="svg55"
   sodipodi:docname="Application Service.svg"
   style="font-size:12px;overflow:visible;color-interpolation-filters:sRGB;fill:none;fill-rule:evenodd;stroke-linecap:square;stroke-miterlimit:3"
   inkscape:version="0.92.5 (2060ec1f9f, 2020-04-08)"><metadata
   id="metadata59"><rdf:RDF><cc:Work
       rdf:about=""><dc:format>image/svg+xml</dc:format><dc:type
         rdf:resource="http://purl.org/dc/dcmitype/StillImage" /></cc:Work></rdf:RDF></metadata><sodipodi:namedview
   pagecolor="#ffffff"
   bordercolor="#666666"
   borderopacity="1"
   objecttolerance="10"
   gridtolerance="10"
   guidetolerance="10"
   inkscape:pageopacity="0"
   inkscape:pageshadow="2"
   inkscape:window-width="640"
   inkscape:window-height="480"
   id="namedview57"
   showgrid="false"
   inkscape:zoom="1.3875797"
   inkscape:cx="37.79527"
   inkscape:cy="37.795408"
   inkscape:window-x="0"
   inkscape:window-y="0"
   inkscape:window-maximized="0"
   inkscape:current-layer="svg55" />
	<style
   type="text/css"
   id="style2">
	<![CDATA[
		.st1 {fill:url(#grad7-6);stroke:none;stroke-linecap:butt;stroke-width:35.4336}
		.st2 {fill:#83b9f9;stroke:none;stroke-linecap:butt;stroke-width:35.4336}
		.st3 {fill:#f2f2f2;stroke:none;stroke-linecap:butt;stroke-width:35.4336}
		.st4 {fill:none;fill-rule:evenodd;font-size:12px;overflow:visible;stroke-linecap:square;stroke-miterlimit:3}
	]]>
	</style>

	<defs
   id="Patterns_And_Gradients">
		<radialGradient
   id="grad7-6"
   cx="0"
   cy="70.8671"
   r="79.3702"
   fx="0"
   fy="70.8671"
   gradientUnits="userSpaceOnUse">
			<stop
   offset="0.185"
   stop-color="#5ea0ef"
   stop-opacity="1"
   id="stop4" />
			<stop
   offset="1"
   stop-color="#0078d4"
   stop-opacity="1"
   id="stop6" />
		</radialGradient>
	</defs>
	<g
   id="g53"
   transform="translate(-35.4336,-35.4335)">
		<title
   id="title10">Page-1</title>
		<g
   id="group9313-1"
   transform="translate(35.4336,-35.4336)">
			<title
   id="title12">Application Service</title>
			<g
   id="group9314-2">
				<title
   id="title14">g22</title>
				<g
   id="shape9315-3">
					<title
   id="title16">path59</title>
					<circle
   cx="28.3465"
   cy="99.2136"
   class="st1"
   id="ellipse18"
   r="28.3465"
   style="fill:url(#grad7-6);stroke:none;stroke-width:35.43360138;stroke-linecap:butt" />
				</g>
				<g
   id="shape9316-7"
   transform="translate(3.94826,-8.79092)">
					<title
   id="title21">path4-3</title>
					<path
   d="m 2.77,113.58 c -1.14,2.83 -2.06,5.85 -2.77,8.83 0.63,1.06 1.31,1.98 2.06,2.96 0.57,0.75 1.18,1.51 1.83,2.19 0.8,-3.96 2.02,-7.86 3.61,-11.57 -1.78,-0.31 -3.43,-1.15 -4.73,-2.41 z M 6.02,98.49 C 4.85,95.34 4.05,92.01 3.71,88.66 c -1.4,1.48 -2.6,3.03 -3.64,4.77 0.39,2.67 1.02,5.42 1.89,7.97 1.06,-1.33 2.46,-2.34 4.06,-2.91 z"
   class="st2"
   id="path23"
   inkscape:connector-curvature="0"
   style="fill:#83b9f9;stroke:none;stroke-width:35.43360138;stroke-linecap:butt" />
				</g>
				<g
   id="shape9317-9"
   transform="translate(14.7042,-7.55718)">
					<title
   id="title26">path8-3</title>
					<path
   d="m 11.56,122.4 c 0,-1.59 0.65,-3.12 1.8,-4.22 -3.06,-1.68 -5.88,-3.76 -8.4,-6.18 -1.32,1.42 -3.06,2.38 -4.96,2.73 1.48,1.56 3.09,2.99 4.81,4.28 2.13,1.61 4.41,3 6.81,4.16 -0.04,-0.26 -0.05,-0.51 -0.05,-0.77 z m 20.95,0.71 c -3.08,0 -6.16,-0.36 -9.16,-1.07 0,0.13 0.03,0.24 0.03,0.36 0,1.55 -0.61,3.03 -1.69,4.13 3.74,0.73 7.63,1.03 11.43,0.83 1.43,-1.35 2.72,-2.89 3.84,-4.5 -1.45,0.15 -2.99,0.25 -4.44,0.25 z"
   class="st2"
   id="path28"
   inkscape:connector-curvature="0"
   style="fill:#83b9f9;stroke:none;stroke-width:35.43360138;stroke-linecap:butt" />
				</g>
				<g
   id="shape9318-11"
   transform="translate(16.2341,-28.4888)">
					<title
   id="title31">path12-4</title>
					<path
   d="m 14.33,114.83 c 6.14,-3.09 13.03,-4.81 19.9,-4.89 -1.44,-1.8 -3.1,-3.4 -4.94,-4.79 -5.38,0.35 -10.77,1.64 -15.73,3.74 -1.09,0.46 -2.15,1 -3.19,1.55 -2.52,-2.99 -4.88,-6.31 -6.73,-9.76 -1.23,0.38 -2.33,0.81 -3.5,1.35 1.91,3.66 4.26,7.23 6.89,10.41 -2.55,1.67 -4.91,3.62 -7.03,5.81 1.85,0.7 3.42,1.99 4.48,3.66 1.95,-1.92 4.1,-3.63 6.4,-5.11 3.78,3.95 7.89,7.55 12.31,10.76 0.3,-1.29 1.02,-2.44 2.03,-3.29 -3.88,-2.84 -7.52,-6 -10.89,-9.44 z"
   class="st2"
   id="path33"
   inkscape:connector-curvature="0"
   style="fill:#83b9f9;stroke:none;stroke-width:35.43360138;stroke-linecap:butt" />
				</g>
				<g
   id="shape9319-13"
   transform="translate(39.3551,-21.0855)">
					<title
   id="title36">circle14-8</title>
					<circle
   cx="6.2691598"
   cy="121.291"
   class="st3"
   id="ellipse38"
   r="6.2691598"
   style="fill:#f2f2f2;stroke:none;stroke-width:35.43360138;stroke-linecap:butt" />
				</g>
				<g
   id="shape9320-15"
   transform="translate(3.93507,-20.2207)">
					<title
   id="title41">circle18-3</title>
					<circle
   cx="9.0861301"
   cy="118.474"
   class="st3"
   id="ellipse43"
   r="9.0861301"
   style="fill:#f2f2f2;stroke:none;stroke-width:35.43360138;stroke-linecap:butt" />
				</g>
				<g
   id="shape9321-17"
   transform="translate(26.2681,-6.81099)">
					<title
   id="title46">circle20-2</title>
					<circle
   cx="5.9033198"
   cy="121.657"
   class="st3"
   id="ellipse48"
   r="5.9033198"
   style="fill:#f2f2f2;stroke:none;stroke-width:35.43360138;stroke-linecap:butt" />
				</g>
			</g>
		</g>
	</g>
</svg>

<?xml version="1.0" encoding="UTF-8" standalone="no"?>
<!DOCTYPE svg PUBLIC "-//W3C//DTD SVG 1.1//EN" "http://www.w3.org/Graphics/SVG/1.1/DTD/svg11.dtd">
<!-- Generated by Microsoft Visio, SVG Export Application Service.svg Page-1 -->
<svg xmlns="http://www.w3.org/2000/svg" xmlns:xlink="http://www.w3.org/1999/xlink" xmlns:ev="http://www.w3.org/2001/xml-events"
		width="1.77167in" height="1.77167in" viewBox="0 0 127.56 127.56" xml:space="preserve" color-interpolation-filters="sRGB"
		class="st4">
	<style type="text/css">
	<![CDATA[
		.st1 {fill:url(#grad7-6);stroke:none;stroke-linecap:butt;stroke-width:35.4336}
		.st2 {fill:#83b9f9;stroke:none;stroke-linecap:butt;stroke-width:35.4336}
		.st3 {fill:#f2f2f2;stroke:none;stroke-linecap:butt;stroke-width:35.4336}
		.st4 {fill:none;fill-rule:evenodd;font-size:12px;overflow:visible;stroke-linecap:square;stroke-miterlimit:3}
	]]>
	</style>

	<defs id="Patterns_And_Gradients">
		<radialGradient id="grad7-6" cx="0" cy="0" r="1.4">
			<stop offset="0.185" stop-color="#5ea0ef" stop-opacity="1"/>
			<stop offset="1" stop-color="#0078d4" stop-opacity="1"/>
		</radialGradient>
	</defs>
	<g>
		<title>Page-1</title>
		<g id="group9118-1" transform="translate(35.4336,-35.4336)">
			<title>Application Service</title>
			<g id="group9119-2">
				<title>g22</title>
				<g id="shape9120-3">
					<title>path59</title>
					<ellipse cx="28.3465" cy="99.2136" rx="28.3465" ry="28.3465" class="st1"/>
				</g>
				<g id="shape9121-7" transform="translate(3.94826,-8.79092)">
					<title>path4-3</title>
					<path d="M2.77 113.58 C1.63 116.41 0.71 119.43 0 122.41 C0.63 123.47 1.31 124.39 2.06 125.37 C2.63 126.12 3.24
								 126.88 3.89 127.56 C4.69 123.6 5.91 119.7 7.5 115.99 C5.72 115.68 4.07 114.84 2.77 113.58 ZM6.02
								 98.49 C4.85 95.34 4.05 92.01 3.71 88.66 C2.31 90.14 1.11 91.69 0.07 93.43 C0.46 96.1 1.09 98.85
								 1.96 101.4 C3.02 100.07 4.42 99.06 6.02 98.49 Z" class="st2"/>
				</g>
				<g id="shape9122-9" transform="translate(14.7042,-7.55718)">
					<title>path8-3</title>
					<path d="M11.56 122.4 C11.56 120.81 12.21 119.28 13.36 118.18 C10.3 116.5 7.48 114.42 4.96 112 C3.64 113.42 1.9
								 114.38 0 114.73 C1.48 116.29 3.09 117.72 4.81 119.01 C6.94 120.62 9.22 122.01 11.62 123.17 C11.58
								 122.91 11.57 122.66 11.57 122.4 L11.56 122.4 ZM32.51 123.11 C29.43 123.11 26.35 122.75 23.35 122.04
								 C23.35 122.17 23.38 122.28 23.38 122.4 C23.38 123.95 22.77 125.43 21.69 126.53 C25.43 127.26 29.32
								 127.56 33.12 127.36 C34.55 126.01 35.84 124.47 36.96 122.86 C35.51 123.01 33.97 123.11 32.52 123.11
								 L32.51 123.11 Z" class="st2"/>
				</g>
				<g id="shape9123-11" transform="translate(16.2341,-28.4888)">
					<title>path12-4</title>
					<path d="M14.33 114.83 C20.47 111.74 27.36 110.02 34.23 109.94 C32.79 108.14 31.13 106.54 29.29 105.15 C23.91
								 105.5 18.52 106.79 13.56 108.89 C12.47 109.35 11.41 109.89 10.37 110.44 C7.85 107.45 5.49 104.13
								 3.64 100.68 C2.41 101.06 1.31 101.49 0.14 102.03 C2.05 105.69 4.4 109.26 7.03 112.44 C4.48 114.11
								 2.12 116.06 0 118.25 C1.85 118.95 3.42 120.24 4.48 121.91 C6.43 119.99 8.58 118.28 10.88 116.8 C14.66
								 120.75 18.77 124.35 23.19 127.56 C23.49 126.27 24.21 125.12 25.22 124.27 C21.34 121.43 17.7 118.27
								 14.33 114.83 Z" class="st2"/>
				</g>
				<g id="shape9124-13" transform="translate(39.3551,-21.0855)">
					<title>circle14-8</title>
					<ellipse cx="6.26916" cy="121.291" rx="6.26916" ry="6.26916" class="st3"/>
				</g>
				<g id="shape9125-15" transform="translate(3.93507,-20.2207)">
					<title>circle18-3</title>
					<ellipse cx="9.08613" cy="118.474" rx="9.08613" ry="9.08613" class="st3"/>
				</g>
				<g id="shape9126-17" transform="translate(26.2681,-6.81099)">
					<title>circle20-2</title>
					<ellipse cx="5.90332" cy="121.657" rx="5.90332" ry="5.90332" class="st3"/>
				</g>
			</g>
		</g>
	</g>
</svg>
